.storybook/compressed-logo-rfd.svg

<svg xmlns="http://www.w3.org/2000/svg" xml:space="preserve" viewBox="0 0 331 226" fill="#0BAF7C"><path d="M217.1 171.2L38.5 171V187.5L228.4 187.7L217.1 171.2Z"/><path d="M288.3 118.5L288.4 30.5H270.6L270.5 117.7C280.6 109.5 285.8 114 288.3 118.5Z"/><path d="M109.381 85.5692C112.235 82.7212 112.239 78.0992 109.391 75.2455C106.543 72.3919 101.921 72.3873 99.0676 75.2353C96.214 78.0833 96.2094 82.7053 99.0574 85.559C101.905 88.4126 106.527 88.4172 109.381 85.5692Z"/><path d="M125.9 91.1C125.9 102.5 135.6 111.8 147.2 110.9C157.6 110.1 165.5 101.2 165.5 90.7V89.4H125.8L125.9 91.1V91.1Z"/><path d="M314.4 133.3V131.2C314.4 123.5 308.2 117.3 300.5 117.3C298 117.3 295.7 118 293.7 119.1C293 117.3 291.9 115.6 290.5 114.2C287.8 111.6 284.3 110.1 280.6 110.1C278.5 110.1 276.4 110.6 274.5 111.5L274.6 12.7L16.8 12.4L16.6 176.3L214.5 176.5C216.5 180.1 218.8 183.9 220.4 185.7L246.2 211.6H293.4L294.6 210.1C294.9 209.7 303.1 199.5 309.2 186.8C312.6 179.7 314.4 171.7 314.4 163.7V133.3V133.3ZM24.6 168.3L24.7 20.4L266.5 20.6L266.4 111.6C264.5 110.6 262.3 110.1 260 110.1C254.1 110.1 249.1 113.9 247.1 119.1C245.1 118 242.9 117.4 240.5 117.4C236.8 117.4 233.4 118.9 230.8 121.5C228.2 124.1 226.8 127.6 226.8 131.3V138.5C224.9 137.4 222.6 136.8 220.2 136.8C218.1 136.8 216.2 137.6 214.7 139.2C210.4 143.7 210.4 153.5 210.8 164.2C210.9 165.7 210.9 167 210.9 168C210.9 168.2 210.9 168.4 211 168.6L24.6 168.3V168.3ZM302 183.3C297.6 192.4 292 200.4 289.6 203.5H249.6L226.5 180.3C223.6 176.9 219.9 169.3 219 167.1C219 166.1 218.9 165 218.9 163.7C218.5 152.6 219 146.2 220.5 144.7C222 144.7 223.1 145.2 224 146.1C226.2 148.4 226.8 152.9 226.9 155.3V157.5H234.9V156.6V155.2V131.1C234.9 129.5 235.5 128 236.6 126.9C237.7 125.8 239.1 125.2 240.6 125.2C243.8 125.2 246.3 127.9 246.3 131.1V147H254.3V132.8V123.9C254.3 120.6 256.9 118 260.2 118C261.8 118 263.3 118.6 264.4 119.7C265.5 120.8 266.1 122.3 266.2 123.9L266.3 139.8H266.5H274.5V132.2V123.9C274.5 122.3 275.1 120.9 276.3 119.7C277.5 118.6 279 117.9 280.6 117.9C282.2 117.9 283.8 118.5 284.9 119.7C286 120.8 286.7 122.3 286.7 123.9V130.6V131.1V147H294.7V139.9V130.7C295 127.7 297.5 125.3 300.6 125.3C303.9 125.3 306.5 128 306.5 131.2V147V163.7C306.4 170.5 304.8 177.3 302 183.3V183.3Z"/><path d="M253.914 154.828L246.028 156.17L251.293 187.124L259.18 185.782L253.914 154.828Z"/><path d="M287.013 154.667L281.719 185.618L289.604 186.966L294.898 156.015L287.013 154.667Z"/><path d="M274.4 151.4H266.4V183.4H274.4V151.4Z"/><path d="M191.925 85.5885C194.779 82.7406 194.784 78.1185 191.936 75.2649C189.088 72.4113 184.466 72.4067 181.612 75.2547C178.758 78.1026 178.754 82.7247 181.602 85.5783C184.45 88.4319 189.072 88.4365 191.925 85.5885Z"/></svg>

<svg xmlns="http://www.w3.org/2000/svg" width="124" enable-background="new 0 0 653.4 219.7" version="1.1" viewBox="0 0 653.4 219.7" xml:space="preserve"><style type="text/css">.st0{fill:#0baf7c}.st1,.st2{fill:#050505;stroke:#050505;stroke-width:3.3319;stroke-miterlimit:10}.st2{stroke-width:7.9291}</style><path d="m360.6 69.5h32.8v11.2h2.8c1.5-4.3 3.9-7.6 7.4-9.9s7.7-3.5 12.6-3.5c7.7 0 13.9 2.4 18.6 7.3 4.7 4.8 7 12.2 7 22.1v3.4l-20.3 1.9v-2.2c0-4.3-1.1-7.7-3.3-10.2s-5.5-3.8-9.8-3.8-7.8 1.5-10.3 4.5-3.7 7.3-3.7 12.9v25h17.8v18.7h-53.4v-18.7h15.9v-40h-14v-18.7z" class="st0"/><path d="m477.8 146.9h-19.7v-109.2h19.7v43.1h2.8c2.1-4.3 5.1-7.6 9-9.9 4-2.3 9-3.5 15.1-3.5 4.6 0 8.9 0.9 13 2.7s7.7 4.3 10.8 7.7 5.5 7.5 7.3 12.4 2.7 10.5 2.7 16.7v2.8c0 6.3-0.9 12-2.7 16.8-1.8 4.9-4.2 9-7.2 12.4s-6.6 5.9-10.7 7.6-8.6 2.6-13.3 2.6c-3.5 0-6.6-0.4-9.2-1.1s-4.9-1.7-6.8-3c-1.9-1.2-3.5-2.7-4.8-4.3s-2.4-3.3-3.4-5.1h-2.8v11.3zm20.6-16.6c6.1 0 11.1-1.9 14.9-5.7s5.7-9 5.7-15.5v-1.9c0-6.6-1.9-11.7-5.7-15.5s-8.8-5.7-14.9-5.7-11.1 1.9-14.9 5.8-5.7 9-5.7 15.4v1.9c0 6.3 1.9 11.5 5.7 15.4s8.8 5.8 14.9 5.8z" class="st0"/><path d="m614 135.6h-2.8c-0.8 1.8-1.8 3.5-3 5.1s-2.8 3-4.7 4.3c-1.9 1.2-4.2 2.2-6.9 3-2.7 0.7-5.8 1.1-9.6 1.1-4.8 0-9.2-0.9-13.3-2.6s-7.7-4.3-10.8-7.6c-3.1-3.4-5.5-7.5-7.2-12.4s-2.6-10.5-2.6-16.8v-2.8c0-6.2 0.9-11.8 2.7-16.7s4.3-9 7.5-12.4 6.9-6 11.1-7.7c4.2-1.8 8.7-2.7 13.3-2.7 6.2 0 11.2 1.2 14.8 3.5s6.5 5.6 8.6 9.9h2.8v-43.1h19.7v109.2h-19.6v-11.3zm-20.6-5.3c6.1 0 11.1-1.9 14.9-5.9 3.8-3.9 5.7-9 5.7-15.4v-1.9c0-6.3-1.9-11.5-5.7-15.4s-8.8-5.8-14.9-5.8-11.1 1.9-14.9 5.7-5.7 9-5.7 15.5v1.9c0 6.6 1.9 11.7 5.7 15.5 3.8 3.9 8.8 5.8 14.9 5.8z" class="st0"/><path d="m217.6 200.8" class="st1"/><path d="m242 200.9" class="st1"/><polygon points="217.1 171.2 38.5 171 38.5 187.5 228.4 187.7" class="st0"/><path d="m288.3 118.5 0.1-88h-17.8l-0.1 87.2c10.1-8.2 15.3-3.7 17.8 0.8z" class="st0"/><ellipse cx="104.2" cy="80.4" class="st0" rx="7.3" ry="7.3" transform="matrix(.7078 -.7064 .7064 .7078 -26.323 97.102)"/><path d="m125.9 91.1c0 11.4 9.7 20.7 21.3 19.8 10.4-0.8 18.3-9.7 18.3-20.2v-1.3h-39.7l0.1 1.7z" class="st0"/><path d="m314.4 133.3v-2.1c0-7.7-6.2-13.9-13.9-13.9-2.5 0-4.8 0.7-6.8 1.8-0.7-1.8-1.8-3.5-3.2-4.9-2.7-2.6-6.2-4.1-9.9-4.1-2.1 0-4.2 0.5-6.1 1.4l0.1-98.8-257.8-0.3-0.2 163.9 197.9 0.2c2 3.6 4.3 7.4 5.9 9.2l25.8 25.9h47.2l1.2-1.5c0.3-0.4 8.5-10.6 14.6-23.3 3.4-7.1 5.2-15.1 5.2-23.1v-30.4zm-289.8 35 0.1-147.9 241.8 0.2-0.1 91c-1.9-1-4.1-1.5-6.4-1.5-5.9 0-10.9 3.8-12.9 9-2-1.1-4.2-1.7-6.6-1.7-3.7 0-7.1 1.5-9.7 4.1s-4 6.1-4 9.8v7.2c-1.9-1.1-4.2-1.7-6.6-1.7-2.1 0-4 0.8-5.5 2.4-4.3 4.5-4.3 14.3-3.9 25 0.1 1.5 0.1 2.8 0.1 3.8 0 0.2 0 0.4 0.1 0.6l-186.4-0.3zm277.4 15c-4.4 9.1-10 17.1-12.4 20.2h-40l-23.1-23.2c-2.9-3.4-6.6-11-7.5-13.2 0-1-0.1-2.1-0.1-3.4-0.4-11.1 0.1-17.5 1.6-19 1.5 0 2.6 0.5 3.5 1.4 2.2 2.3 2.8 6.8 2.9 9.2v2.2h8v-0.9-1.4-24.1c0-1.6 0.6-3.1 1.7-4.2s2.5-1.7 4-1.7c3.2 0 5.7 2.7 5.7 5.9v15.9h8v-14.2-8.9c0-3.3 2.6-5.9 5.9-5.9 1.6 0 3.1 0.6 4.2 1.7s1.7 2.6 1.8 4.2l0.1 15.9h0.2 8v-7.6-8.3c0-1.6 0.6-3 1.8-4.2 1.2-1.1 2.7-1.8 4.3-1.8s3.2 0.6 4.3 1.8c1.1 1.1 1.8 2.6 1.8 4.2v6.7 0.5 15.9h8v-7.1-9.2c0.3-3 2.8-5.4 5.9-5.4 3.3 0 5.9 2.7 5.9 5.9v15.8 16.7c-0.1 6.8-1.7 13.6-4.5 19.6z" class="st0"/><rect width="8" height="31.4" x="248.6" y="155.3" class="st0" transform="matrix(.9858 -.1677 .1677 .9858 -25.086 44.765)"/><rect width="31.4" height="8" x="272.6" y="166.9" class="st0" transform="matrix(.1686 -.9857 .9857 .1686 71.245 426.18)"/><rect width="8" height="32" x="266.4" y="151.4" class="st0"/><path d="m242 200.9" class="st2"/><ellipse cx="186.8" cy="80.4" class="st0" rx="7.3" ry="7.3" transform="matrix(.7078 -.7064 .7064 .7078 -2.2429 155.47)"/></svg>
